pro/src/icons/stroke-no-image.svg

<svg width="48" height="48" viewBox="0 0 48 48" fill="none" xmlns="http://www.w3.org/2000/svg">
<path id="icon" d="M45.7101 44.2901L43.2301 41.8101C44.8401 41.2901 46.0001 39.7801 46.0001 38.0001V10.0001C46.0001 7.79007 44.2101 6.00007 42.0001 6.00007H14.0001C13.4501 6.00007 13.0001 6.45007 13.0001 7.00007C13.0001 7.55007 13.4501 8.00007 14.0001 8.00007H42.0001C43.1101 8.00007 44.0001 8.89007 44.0001 10.0001V27.4301L36.1501 18.8601C35.5501 18.2101 34.7501 17.8901 33.9401 17.8901C33.1301 17.8901 32.4001 18.1801 31.8101 18.7701L26.0001 24.5901L3.70006 2.30007C3.31006 1.91007 2.68006 1.91007 2.29006 2.30007C1.90006 2.69007 1.90006 3.32007 2.29006 3.71007L24.5901 26.0001L10.5801 40.0001H6.00006C4.89006 40.0001 4.00006 39.1101 4.00006 38.0001V35.8701C4.00006 35.8701 4.03006 35.8401 4.04006 35.8301L11.2301 29.9201C11.6301 29.6001 12.2101 29.6201 12.5701 29.9901L14.2901 31.7101C14.6801 32.1001 15.3201 32.1001 15.7101 31.7101C16.1001 31.3201 16.1001 30.6801 15.7101 30.2901L13.9901 28.5701C12.8901 27.4801 11.1501 27.4001 9.96006 28.3801L4.00006 33.2801V10.0001C4.00006 8.89007 4.89006 8.00007 6.00006 8.00007H6.57006L4.77006 6.20007C3.16006 6.71007 2.00006 8.22007 2.00006 10.0001V38.0001C2.00006 40.2101 3.79006 42.0001 6.00006 42.0001H40.5901L44.3001 45.7001C44.5001 45.9001 44.7501 45.9901 45.0101 45.9901C45.2701 45.9901 45.5201 45.8901 45.7201 45.7001C46.1101 45.3101 46.1101 44.6801 45.7201 44.2901H45.7101ZM13.4101 40.0001L26.0001 27.4101L38.5901 40.0001H13.4101ZM41.4201 40.0001L30.4201 29.0001C31.1901 29.1501 31.9401 29.2201 32.6701 29.2201C33.2301 29.2201 33.6801 28.7801 33.6801 28.2201C33.6801 27.6601 33.2401 27.2201 32.6801 27.2201C31.1101 27.2101 29.3701 26.8501 27.5901 25.8301L33.2401 20.1901C33.4301 19.9901 33.6901 19.8901 33.9401 19.8901C34.2101 19.8901 34.4801 20.0001 34.6801 20.2201L39.3101 25.2701C39.2401 25.3101 39.1401 25.3801 39.0101 25.4601C38.7201 25.6301 38.2801 25.8601 37.7401 26.1001C37.2301 26.3301 37.0001 26.9201 37.2201 27.4201C37.4501 27.9301 38.0401 28.1601 38.5401 27.9401C39.1701 27.6601 39.6801 27.3801 40.0301 27.1701C40.2001 27.0701 40.3401 26.9801 40.4301 26.9201C40.4801 26.8901 40.5201 26.8601 40.5501 26.8401L40.5801 26.8201H40.5901L40.6001 26.8101C40.6201 26.7901 40.6501 26.7701 40.6701 26.7501L44.0101 30.3901V38.0001C44.0101 39.1101 43.1201 40.0001 42.0101 40.0001H41.4301H41.4201Z" fill="currentColor"/>
</svg>

<svg xmlns="http://www.w3.org/2000/svg" width="48" height="48" fill="none"><path id="icon" fill="currentColor" d="m45.71 44.29-2.48-2.48A4 4 0 0 0 46 38V10c0-2.21-1.79-4-4-4H14c-.55 0-1 .45-1 1s.45 1 1 1h28c1.11 0 2 .89 2 2v17.43l-7.85-8.57c-.6-.65-1.4-.97-2.21-.97s-1.54.29-2.13.88L26 24.59 3.7 2.3a.996.996 0 1 0-1.41 1.41L24.59 26 10.58 40H6c-1.11 0-2-.89-2-2v-2.13l.04-.04 7.19-5.91c.4-.32.98-.3 1.34.07l1.72 1.72c.39.39 1.03.39 1.42 0s.39-1.03 0-1.42l-1.72-1.72a3.007 3.007 0 0 0-4.03-.19L4 33.28V10c0-1.11.89-2 2-2h.57l-1.8-1.8A3.98 3.98 0 0 0 2 10v28c0 2.21 1.79 4 4 4h34.59l3.71 3.7c.2.2.45.29.71.29s.51-.1.71-.29a.996.996 0 0 0 0-1.41zM13.41 40 26 27.41 38.59 40zm28.01 0-11-11c.77.15 1.52.22 2.25.22.56 0 1.01-.44 1.01-1s-.44-1-1-1c-1.57-.01-3.31-.37-5.09-1.39l5.65-5.64c.19-.2.45-.3.7-.3.27 0 .54.11.74.33l4.63 5.05c-.07.04-.17.11-.3.19-.29.17-.73.4-1.27.64-.51.23-.74.82-.52 1.32.23.51.82.74 1.32.52a14 14 0 0 0 1.89-1.02c.05-.03.09-.06.12-.08l.03-.02h.01l.01-.01c.02-.02.05-.04.07-.06l3.34 3.64V38c0 1.11-.89 2-2 2z"/></svg>
